X:1
T:Song from Moulin Rouge
T:Song from Moulin Rouge
T:(Where is Your Heart)
T:Georges Auric
T:William Engvick
C:Georges Auric
Z:All Rights Reserved
L:1/8
M:3/4
K:Eb
V:1 treble 
%%MIDI program 40
V:1
 z4 B,2 |:"Eb" E3 G E2 |"Gm" B4 B,2 |"Cm7" E3"F7" G D2 |"Fm7" C2"Bb7" B,2 B,2 |"Fm" F3 G F2 | %6
w: When-|ev- er we|kiss, I|wor- ry and|won- der. Your|lips may be|
w: |al- ways like|this. I|wor- ry and|won- der. You're|close to me|
"Bb" B4 F2 |"Fm7" A2"Bb" G2"Bb7" F2 |1"^Eb." E4 B,2 :|2"Eb" E4 FG ||"Fm7" A2 AG"Bb7" FA | %11
w: near, but|where is your|heart? It's|heart? It's a|sad thing to re- a-|
w: here, but|where is your|heart? *|||
"^Ebma7" G4"Eb6" E2 |"Fm6" FG GF"G7" ED |"Cm" E4"Cm6/A" CD |"D7b9" E2 ED CE |"Gm" D4 D2 | %16
w: lize that|you've a heart that ne- ver|melts. When we|kiss, do you close your|eyes, pre-|
w: |||||
"Cm7" ED CD"F7" EC |"Bb7" F4 B,2 |"Eb" E3 G E2 |"Gm" B4 B,2 |"Cm7" E3"F7" G D2 | %21
w: ten- ding that I'm some- one|else? You|must break the|spell, this|cloud that I'm|
w: |||||
"Fm7" C2"Bb7" B,2 B,2 |"Fm" F3 G F2 |"Bb" B4 FG |"Fm7" A2"Bb6" G2"Bb7" F2 |"Eb" E4 z2 |] %26
w: un- der. So|please, won't you|tell, dar- ling|where is your|heart.|
w: |||||

